X: 1
T: Night Cap, The
M: 6/8
L: 1/8
R: jig
K: Amaj
cee e2A|cee f2e|def afe|def afe|
cee e2A|cee efg|agf ecc|eAc B2A:|
cAA eAA|fAA eAA|cAA eAA|cBA cBA|
cAA eAA|fAA efg|agf ecc|acc B2A:|
